!!!ONB: MCCC : IFS0366_02 : Extracted Monophonic Melody
!!!COM: Schubert, Franz
!!!OPR: Vier Impromptus
!!!OMV: 2
!!!SCT: D.899 ; Op.91
!!!ODT: 1827///
**kern
*staff1
*clefG2
*k[b-e-a-]
*E-:
*M3/4
4bb-
=2
12gg
12bb-
12aa-
12gg
12ff
12ee-
12dd
12cc
12b-
=3
12a-
12g
12f
12e-
12d
12c
12B-
12c
12d
=4
12e-
12d
12e-
12e
12d#
12e
12f
12e
12f
=5
12g-
12f
12g-
12g
12f#
12g
12a-
12g
12a-
=6
12g
12b-
12a-
12g
12a-
12b-
12cc
12dd
12ee-
=7
12ff
12ccc
12bb-
12aa-
12gg
12ff
12ee-
12dd
12cc
=8
12b-
12ff
12ee-
12dd
12cc
12b-
12a-
12g
12f
=9
12e-
12f
12g
12a-
12b-
12cc
12dd
12ee-
12ff
=10
12gg
12bb-
12aa-
12gg
12ff
12ee-
12dd
12cc
12b-
=11
12a-
12g
12f
12e-
12d
12c
12B-
12c
12d
=12
12e-
12d
12e-
12e
12d#
12e
12f
12e
12f
=13
12g-
12f
12g-
12g
12f#
12g
12a-
12g
12a-
=14
12g
12b-
12a-
12g
12a-
12b-
12cc
12dd
12ee-
=15
12ff
12ccc
12bb-
12aa-
12gg
12ff
12ee-
12dd
12cc
=16
12dd
12ff
12ee-
12dd
12ee-
12ff
12gg
12aa-
12bb-
=17
12ee-
12ff
12gg
12aa-
12bb-
12ccc
12ddd
12eee-
12fff
=18
12ggg
12bbb-
12aaa-
12ggg
12fff
12eee-
12ddd
12ccc
12bb-
=19
12aa-
12gg
12ff
12ee-
12dd
12cc
12b-
12cc
12dd
=20
12ee-
12dd
12ee-
12ee
12dd#
12ee
12ff
12ee
12ff
=21
12gg-
12ff
12gg-
12gg
12ff#
12gg
12aa-
12gg
12aa-
=22
12gg
12bb-
12aa-
12gg
12aa-
12bb-
12ccc
12ddd
12eee-
=23
12fff
12cccc
12bbb-
12aaa-
12ggg
12fff
12eee-
12ddd
12ccc
=24
12bb-
12fff
12eee-
12ddd
12ccc
12bb-
12aa-
12gg
12ff
=25
12ee-
12gg
12ff
12ee-
12dd
12cc
12b-
12a-
12f
=26
12g-
12b-
12a-
12g-
12f
12e-
12d-
12B
12A#
=27
12B
12e-
12a-
12b
12b
12b
12b
12b[
12b]
=28
12f
12b
12b-
12a-
12g-
12f
12e-
12d-
12B
=29
12B-
12d-
12g-
12b-
12b-
12b-
12b-
12b-[
12b-]
=30
12e-
12b-
12a-
12g-
12f
12e-
12d-
12B
12B-
=31
12A-
12B
12f
12a-
12a-
12a-
12a-
12a-[
12a-]
=32
12d
12a-
12g-
12f
12e-
12d
12B
12B-
12A-
=33
12G-
12B-
12e-
12g-
12g-
12g-
12g-
12g-[
12g-]
=34
12B
12e-
12a-
12b
12b
12b
12b
12b[
12b]
=35
12b
12b[
12b]
12b-
12b-[
12b-]
12dd
12dd[
12dd]
=36
12ee-
12gg-
12ff
12ee-
12dd-
12b
12b-
12a-
12f
=37
12g-
12b-
12a-
12g-
12f
12e-
12d-
12B
12A#
=38
12B
12d
12f
12b
12b
12b
12b
12b[
12b]
=39
12B-
12b-
12a-
12g-
12f
12e-
12d-
12B
12A#
=40
12B
12d
12f
12b
12b
12b
12b
12b[
12b]
=41
12d-
12g-
12b-
12dd-
12dd-
12dd-
12dd-
12dd-[
12dd-]
=42
12e-
12a-
12b
12ee-
12ee-
12ee-
12ee-
12ee-[
12ee-]
=43
12f
12g-
12g
12a-
12b-
12b
12dd-
12ee-
12ff
=44
12gg-
12bb-
12aa-
12gg
12ff
12ee-
12dd-
12b
12b-
=45
12a-
12b
12b-
12a-
12g-
12f
12e-
12d
12f
=46
12a-
12b
12b-
12a-
12g-
12f
12e-
12d
12f
=47
12a-
12b
12b-
12a-
12g-
12f
12e-
12d
12f
=48
12a-
12b
12dd
12b
12dd
12ff
12dd
12ff
12gg-
=49
12aa-
12bb
12bb-
12aa-
12gg-
12ff
12ee-
12dd
12ff
=50
12aa-
12bb
12bb-
12aa-
12gg-
12ff
12ee-
12dd
12ff
=51
12aa-
12bb
12aa-
12bb
12aa-
12bb
12aa-
12bb
12aa-
=52
12bb-
12aa-
12bb-
12aa-
12bb-
12aa-
12bb-
12aa-
12bb-
=53
12gg
12bb-
12aa-
12gg
12ff
12ee-
12dd
12cc
12b-
=54
12a-
12g
12f
12e-
12d
12c
12B-
12c
12d
=55
12e-
12d
12e-
12e
12d#
12e
12f
12e
12f
=56
12g-
12f
12g-
12g
12f#
12g
12a-
12g
12a-
=57
12g
12b-
12a-
12g
12a-
12b-
12cc
12dd
12ee-
=58
12ff
12ccc
12bb-
12aa-
12gg
12ff
12ee-
12dd
12cc
=59
12dd
12ff
12ee-
12dd
12ee-
12ff
12gg
12aa-
12bb-
=60
12ee-
12ff
12gg
12aa-
12bb-
12ccc
12ddd
12eee-
12fff
=61
12ggg
12bbb-
12aaa-
12ggg
12fff
12eee-
12ddd
12ccc
12bb-
=62
12aa-
12gg
12ff
12ee-
12dd
12cc
12b-
12cc
12dd
=63
12ee-
12dd
12ee-
12ee
12dd#
12ee
12ff
12ee
12ff
=64
12gg-
12ff
12gg-
12gg
12ff#
12gg
12aa-
12gg
12aa-
=65
12gg
12ff#
12gg
12aa-
12gg
12aa-
12bb-
12aa-
12bb-
=66
12aa-
12gg
12aa-
12bb-
12aa-
12bb-
12ccc
12bb
12ccc
=67
12ddd
12ccc#
12ddd
12eee
12ddd
12eee
12ggg-
12eee
12fff#
=68
12ggg
12fff#
12ggg
12aaa
12ggg
12aaa
12bbb
12aaa
12bbb
=69
12cccc
12bbb
12cccc
12dddd
12cccc
12dddd
12eeee
12dddd
12eeee
=70
12ffff
12eeee-
12dddd-
12cccc
12bbb-
12aaa-
12ggg
12fff
12eee-
=71
12ddd
12ccc
12bb-
12aa
12bb-
12ccc
12ddd
12eee-
12fff
=72
12ggg-
12bbb-
12aaa-
12ggg-
12fff
12eee-
12ddd-
12bb
12aa#
=73
12bb
12eee-
12ddd-
12bb
12bb-
12aa-
12gg-
12ff
12ee-
=74
12dd
12ff
12ee-
12dd
12b
12b-
12a-
12g-
12f
=75
12gg-
12bb-
12aa-
12gg-
12ff
12ee-
12dd-
12b
12a#
=76
12b
12ee-
12dd-
12b
12b-
12a-
12g-
12f
12e-
=77
12d
12f
12e-
12d
12B
12B-
4r
=78
2.r
=79
2.r
=80
2.r
=81
4r
4r
12d
12e-
12f
=82
2g-
4r
=83
2b-
4r
=84
2.b
=85
4r
12B
12d-
12g
4B
=86
8b[
8b]
8dd-[
8dd-]
8dd[
8dd]
=87
4dd-
16dd-
16dd-
8dd-[
4dd-]
=88
4gg-
16gg-
16gg-
8gg-[
4gg-]
=89
4dd
16dd
16dd
8dd[
4dd]
=90
4cc#
4ee
4dd-
=91
4r
12d
12g-
12b
4d
=92
2.b
=93
4r
12B
12d-
12g
4B
=94
8b[
8b]
8dd-[
8dd-]
8dd[
8dd]
=95
4dd-
16dd-
16dd-
8dd-[
4dd-]
=96
4gg-
16gg-
16gg-
8gg-[
4gg-]
=97
4dd
16dd
16dd
8dd[
4dd]
=98
8b[
8b]
8dd[
8dd]
8b[
8b]
=99
4dd-
16dd-
16dd-
8dd-[
4dd-]
=100
4a
16a
16a
8a[
4a]
=101
4g
16g
16g
8g[
4g]
=102
4f
4a-
4f
=103
4r
12G-
12A
12d-
4G-
=104
2.g-
=105
4r
12G-
12A
12d-
4G-
=106
2.f
=107
4r
12G-
12A
12d-
4G-
=108
2.g-
=109
4r
12G-
12A
12d-
4G-
=110
2.f
=111
4r
12G-
12A
12d-
4G-
=112
2.dd-
=113
4r
12B-
12d-
12g
4B-
=114
8b[
8b]
8dd-[
8dd-]
8dd[
8dd]
=115
4dd-
16dd-
16dd-
8dd-[
4dd-]
=116
4gg-
16gg-
16gg-
8gg-[
4gg-]
=117
4ee-
16ee-
16ee-
8ee-[
4ee-]
=118
8ee[
8ee]
8gg-[
8gg-]
8gg[
8gg]
=119
4gg-
16gg-
16gg-
8gg-[
4gg-]
=120
8dd[
8dd]
8dd-[
8dd-]
8b[
8b]
=121
4dd-
16dd-
16dd-
8dd-[
4dd-]
=122
8a[
8a]
8a-[
8a-]
8g-[
8g-]
=123
4a-
16a-
16a-
8a-[
4a-]
=124
2.f
=125
2.g-
=126
2.r
=127
2.r
=128
4b
16b
16b
8b[
4b]
=129
4b
16b
16b
8b[
4b]
=130
8b[
8b]
8dd-[
8dd-]
8dd[
8dd]
=131
4dd-
16dd-
16dd-
8dd-[
4dd-]
=132
4gg-
16gg-
16gg-
8gg-[
4gg-]
=133
4dd
16dd
16dd
8dd[
4dd]
=134
4cc#
4ee
4dd-
=135
4r
12d
12g-
12b
4d
=136
2.ee
=137
4r
12e
12g-
12cc
4e
=138
8ee[
8ee]
8gg-[
8gg-]
8gg[
8gg]
=139
4gg-
16gg-
16gg-
8gg-[
4gg-]
=140
4bb
16bb
16bb
8bb[
4bb]
=141
4gg
16gg
16gg
8gg[
4gg]
=142
8ee[
8ee]
8gg[
8gg]
8ee[
8ee]
=143
4gg-
16gg-
16gg-
8gg-[
4gg-]
=144
4dd
16dd
16dd
8dd[
4dd]
=145
4cc
16cc
16cc
8cc[
4cc]
=146
4b-
4dd-
4b-
=147
4r
12B
12d
12g-
4B
=148
2.b
=149
4r
12B
12d
12g-
4B
=150
2.b-
=151
4r
12B
12d
12g-
4B
=152
2.b
=153
4r
12B
12d
12g-
4B
=154
2.b-
=155
4r
12B
12d
12g-
4B
=156
2.b
=157
4r
12B
12d
12g-
4B
=158
12d
12g-
12b
4B
12d
12g-
12b
=159
4B
12d
12g-
12b
4B
=160
2.b-
=161
4r
12B-
12e-
12g-
4B-
=162
12e-
12g-
12b-
4B-
12e-
12g-
12b-
=163
4B-
12e-
12g-
12b-
4B-
=164
2ee-
4eee-
=165
4eee-
2bb]
=166
12aa-
12bb
12aa-
12bb
12aa-
12bb
12aa-
12bb
12aa-
=167
12bb
12aa-
12bb
12aa-
12bb
12aa-
12bb
12aa-
12bb
=168
12aa-
12bb-
12aa-
12bb-
12aa-
12bb-
12aa-
12bb-
12aa-
=169
12bb-
12aa-
12bb-
12aa-
12bb-
12aa-
12bb-
12aa-
12bb-
=170
12gg
12bb-
12aa-
12gg
12ff
12ee-
12dd
12cc
12b-
=171
12a-
12g
12f
12e-
12d
12c
12B-
12c
12d
=172
12e-
12d
12e-
12e
12d#
12e
12f
12e
12f
=173
12g-
12f
12g-
12g
12f#
12g
12a-
12g
12a-
=174
12g
12b-
12a-
12g
12a-
12b-
12cc
12dd
12ee-
=175
12ff
12ccc
12bb-
12aa-
12gg
12ff
12ee-
12dd
12cc
=176
12b-
12ff
12ee-
12dd
12cc
12b-
12a-
12g
12f
=177
12e-
12f
12g
12a-
12b-
12cc
12dd
12ee-
12ff
=178
12gg
12bb-
12aa-
12gg
12ff
12ee-
12dd
12cc
12b-
=179
12a-
12g
12f
12e-
12d
12c
12B-
12c
12d
=180
12e-
12d
12e-
12e
12d#
12e
12f
12e
12f
=181
12g-
12f
12g-
12g
12f#
12g
12a-
12g
12a-
=182
12g
12b-
12a-
12g
12a-
12b-
12cc
12dd
12ee-
=183
12ff
12ccc
12bb-
12aa-
12gg
12ff
12ee-
12dd
12cc
=184
12dd
12ff
12ee-
12dd
12ee-
12ff
12gg
12aa-
12bb-
=185
12ee-
12ff
12gg
12aa-
12bb-
12ccc
12ddd
12eee-
12fff
=186
12ggg
12bbb-
12aaa-
12ggg
12fff
12eee-
12ddd
12ccc
12bb-
=187
12aa-
12gg
12ff
12ee-
12dd
12cc
12b-
12cc
12dd
=188
12ee-
12dd
12ee-
12ee
12dd#
12ee
12ff
12ee
12ff
=189
12gg-
12ff
12gg-
12gg
12ff#
12gg
12aa-
12gg
12aa-
=190
12gg
12bb-
12aa-
12gg
12aa-
12bb-
12ccc
12ddd
12eee-
=191
12fff
12cccc
12bbb-
12aaa-
12ggg
12fff
12eee-
12ddd
12ccc
=192
12bb-
12fff
12eee-
12ddd
12ccc
12bb-
12aa-
12gg
12ff
=193
12ee-
12gg
12ff
12ee-
12dd
12cc
12b-
12a-
12f
=194
12g-
12b-
12a-
12g-
12f
12e-
12d-
12B
12A#
=195
12B
12e-
12a-
12b
12b
12b
12b
12b[
12b]
=196
12f
12b
12b-
12a-
12g-
12f
12e-
12d-
12B
=197
12B-
12d-
12g-
12b-
12b-
12b-
12b-
12b-[
12b-]
=198
12e-
12b-
12a-
12g-
12f
12e-
12d-
12B
12B-
=199
12A-
12B
12f
12a-
12a-
12a-
12a-
12a-[
12a-]
=200
12d
12a-
12g-
12f
12e-
12d
12B
12B-
12A-
=201
12G-
12B-
12e-
12g-
12g-
12g-
12g-
12g-[
12g-]
=202
12B
12e-
12a-
12b
12b
12b
12b
12b[
12b]
=203
12b
12b[
12b]
12b-
12b-[
12b-]
12dd
12dd[
12dd]
=204
12ee-
12gg-
12ff
12ee-
12dd-
12b
12b-
12a-
12f
=205
12g-
12b-
12a-
12g-
12f
12e-
12d-
12B
12A#
=206
12B
12d
12f
12b
12b
12b
12b
12b[
12b]
=207
12B-
12b-
12a-
12g-
12f
12e-
12d-
12B
12A#
=208
12B
12d
12f
12b
12b
12b
12b
12b[
12b]
=209
12d-
12g-
12b-
12dd-
12dd-
12dd-
12dd-
12dd-[
12dd-]
=210
12e-
12a-
12b
12ee-
12ee-
12ee-
12ee-
12ee-[
12ee-]
=211
12f
12g-
12g
12a-
12b-
12b
12dd-
12ee-
12ff
=212
12gg-
12bb-
12aa-
12gg
12ff
12ee-
12dd-
12b
12b-
=213
12a-
12b
12b-
12a-
12g-
12f
12e-
12d
12f
=214
12a-
12b
12b-
12a-
12g-
12f
12e-
12d
12f
=215
12a-
12b
12b-
12a-
12g-
12f
12e-
12d
12f
=216
12a-
12b
12dd
12b
12dd
12ff
12dd
12ff
12gg-
=217
12aa-
12bb
12bb-
12aa-
12gg-
12ff
12ee-
12dd
12ff
=218
12aa-
12bb
12bb-
12aa-
12gg-
12ff
12ee-
12dd
12ff
=219
12aa-
12bb
12aa-
12bb
12aa-
12bb
12aa-
12bb
12aa-
=220
12bb-
12aa-
12bb-
12aa-
12bb-
12aa-
12bb-
12aa-
12bb-
=221
12gg
12bb-
12aa-
12gg
12ff
12ee-
12dd
12cc
12b-
=222
12a-
12g
12f
12e-
12d
12c
12B-
12c
12d
=223
12e-
12d
12e-
12e
12d#
12e
12f
12e
12f
=224
12g-
12f
12g-
12g
12f#
12g
12a-
12g
12a-
=225
12g
12b-
12a-
12g
12a-
12b-
12cc
12dd
12ee-
=226
12ff
12ccc
12bb-
12aa-
12gg
12ff
12ee-
12dd
12cc
=227
12dd
12ff
12ee-
12dd
12ee-
12ff
12gg
12aa-
12bb-
=228
12ee-
12ff
12gg
12aa-
12bb-
12ccc
12ddd
12eee-
12fff
=229
12ggg
12bbb-
12aaa-
12ggg
12fff
12eee-
12ddd
12ccc
12bb-
=230
12aa-
12gg
12ff
12ee-
12dd
12cc
12b-
12cc
12dd
=231
12ee-
12dd
12ee-
12ee
12dd#
12ee
12ff
12ee
12ff
=232
12gg-
12ff
12gg-
12gg
12ff#
12gg
12aa-
12gg
12aa-
=233
12gg
12ff#
12gg
12aa-
12gg
12aa-
12bb-
12aa-
12bb-
=234
12aa-
12gg
12aa-
12bb-
12aa-
12bb-
12ccc
12bb
12ccc
=235
12ddd
12ccc#
12ddd
12eee
12ddd
12eee
12ggg-
12eee
12fff#
=236
12ggg
12fff#
12ggg
12aaa
12ggg
12aaa
12bbb
12aaa
12bbb
=237
12cccc
12bbb
12cccc
12dddd
12cccc
12dddd
12eeee
12dddd
12eeee
=238
12ffff
12eeee-
12dddd-
12cccc
12bbb-
12aaa-
12ggg
12fff
12eee-
=239
12ddd
12ccc
12bb-
12aa
12bb-
12ccc
12ddd
12eee-
12fff
=240
12ggg-
12bbb-
12aaa-
12ggg-
12fff
12eee-
12ddd-
12bb
12aa#
=241
12bb
12eee-
12ddd-
12bb
12bb-
12aa-
12gg-
12ff
12ee-
=242
12dd
12ff
12ee-
12dd
12b
12b-
12a-
12g-
12f
=243
12gg-
12bb-
12aa-
12gg-
12ff
12ee-
12dd-
12b
12a#
=244
12b
12ee-
12dd-
12b
12b-
12a-
12g-
12f
12e-
=245
12d
12f
12e-
12d
12B
12B-
4r
=246
2.r
=247
2.r
=248
2.r
=249
4r
4r
12d
12e-
12f
=250
2g-
4r
=251
2b-
4r
=252
2.b
=253
4r
12B
12d-
12g
4B
=254
8b[
8b]
8dd-[
8dd-]
8dd[
8dd]
=255
4dd-
16dd-
16dd-
8dd-[
4dd-]
=256
4dd
16dd
16dd
8dd[
4dd]
=257
4ee-
16ee-
16ee-
8ee-[
4ee-]
=258
8f
8ff
8g-
8gg-
8f
8ff
=259
4ee-
16ee-
16ee-
8ee-[
4ee-]
=260
4bb
16bb
16bb
8bb[
4bb]
=261
4bb
16bb
16bb
8bb[
4bb]
=262
8bb[
8bb]
8ddd-[
8ddd-]
8ddd[
8ddd]
=263
4ddd-
16ddd-
16ddd-
8ddd-[
4ddd-]
=264
4ddd
16ddd
16ddd
8ddd[
4ddd]
=265
4eee-
16eee-
16eee-
8eee-[
4eee-]
=266
8ddd
8fff
8ddd
8ggg-
8ddd
8fff
=267
2.eee-
=268
4r
12bb-
12fff
12aaa-
4bb-
=269
2.bbb-
=270
8fff
8aaa-
8eee-
8ggg-
8ddd
8fff
=271
4eee-
16eee-
16eee-
8eee-[
4eee-]
=272
4bbb-
16bbb-
16bbb-
8bbb-[
4bbb-]
=273
4bbb-
16bbb-
16bbb-
8bbb-[
4bbb-]
=274
8fff
8aaa-
8eee-
8ggg-
8ddd
8fff
=275
4eee-
16eee-
16eee-
8eee-[
4eee-]
=276
8aaa-
8bbb
8ggg-
8bbb-
8fff
8dddd
=277
12eeee-
12bbb
12bbb-
12aaa-
12ggg-
12fff
4eee-
=278
12eee-
12bb
12bb-
12aa-
12gg-
12ff
4ee-
=279
12ee-
12b
12b-
12a-
12g-
12f
4e-
=280
2.r
=281
2.r
=282
2.r
=283
4dd
4r
4r
=284
4ee-
4r
4r
==
*-
